src/shared/assets/Google.svg

<svg width="25" height="24" viewBox="0 0 25 24" fill="none" xmlns="http://www.w3.org/2000/svg">
<path fill-rule="evenodd" clip-rule="evenodd" d="M22.004 12.2258C22.004 11.524 21.9413 10.8486 21.8236 10.2007H12.5V14.0298H17.8284C17.5985 15.2673 16.9011 16.3167 15.8528 17.0185V19.5023H19.0516C20.9238 17.7786 22.004 15.2409 22.004 12.2258Z" fill="#3D82F0"/>
<path fill-rule="evenodd" clip-rule="evenodd" d="M12.4996 21.9004C15.1726 21.9004 17.4133 21.0137 19.0512 19.5023L15.8524 17.0174C14.9658 17.6114 13.8317 17.9623 12.4996 17.9623C9.92122 17.9623 7.73883 16.221 6.96003 13.8813H3.65234V16.4465C5.28144 19.6816 8.62982 21.9004 12.4996 21.9004Z" fill="#31A752"/>
<path fill-rule="evenodd" clip-rule="evenodd" d="M6.95999 13.8814C6.76199 13.2874 6.64979 12.6527 6.64979 12.0004C6.64979 11.3481 6.76199 10.7134 6.95999 10.1194V7.5542H3.65231C2.98241 8.8907 2.59961 10.4032 2.59961 12.0004C2.59961 13.5976 2.98241 15.1101 3.65231 16.4466L6.95999 13.8814Z" fill="#F9BA00"/>
<path fill-rule="evenodd" clip-rule="evenodd" d="M12.4996 6.0381C13.9527 6.0381 15.2584 6.5375 16.2836 7.5187L19.1238 4.6796C17.4089 3.0813 15.1682 2.1001 12.4996 2.1001C8.62983 2.1001 5.28144 4.3188 3.65234 7.555L6.96003 10.1191C7.73883 7.7794 9.92122 6.0381 12.4996 6.0381Z" fill="#E64234"/>
</svg>

<svg xmlns="http://www.w3.org/2000/svg" width="25" height="24" fill="none"><path fill="#3D82F0" fill-rule="evenodd" d="M22.004 12.226c0-.702-.063-1.377-.18-2.025H12.5v3.829h5.328a4.558 4.558 0 0 1-1.975 2.989v2.483h3.199c1.872-1.723 2.952-4.261 2.952-7.276Z" clip-rule="evenodd"/><path fill="#31A752" fill-rule="evenodd" d="M12.5 21.9c2.673 0 4.913-.886 6.551-2.398l-3.199-2.485c-.886.594-2.02.945-3.352.945-2.579 0-4.761-1.741-5.54-4.08H3.652v2.565A9.898 9.898 0 0 0 12.5 21.9Z" clip-rule="evenodd"/><path fill="#F9BA00" fill-rule="evenodd" d="M6.96 13.881a5.952 5.952 0 0 1-.31-1.88c0-.653.112-1.288.31-1.882V7.554H3.652a9.906 9.906 0 0 0 0 8.893L6.96 13.88Z" clip-rule="evenodd"/><path fill="#E64234" fill-rule="evenodd" d="M12.5 6.038c1.453 0 2.758.5 3.784 1.48l2.84-2.838C17.409 3.08 15.168 2.1 12.5 2.1a9.897 9.897 0 0 0-8.848 5.455l3.308 2.564c.779-2.34 2.961-4.08 5.54-4.08Z" clip-rule="evenodd"/></svg>
